svg/fluentui-system-icons/ic_fluent_calendar_lock_24_filled.svg

<svg width="24" height="24" viewBox="0 0 24 24" fill="none" xmlns="http://www.w3.org/2000/svg">
<path d="M21 8.5V11.5505C20.3647 10.9022 19.4793 10.5 18.5 10.5C16.567 10.5 15 12.067 15 14V14.05C13.8589 14.2816 13 15.2905 13 16.5V21H6.25C4.45507 21 3 19.5449 3 17.75V8.5H21ZM17.75 3C19.5449 3 21 4.45507 21 6.25V7H3V6.25C3 4.45507 4.45507 3 6.25 3H17.75ZM16 15H15.5C14.6716 15 14 15.6716 14 16.5V21.5C14 22.3284 14.6716 23 15.5 23H21.5C22.3284 23 23 22.3284 23 21.5V16.5C23 15.6716 22.3284 15 21.5 15H21V14C21 12.6193 19.8807 11.5 18.5 11.5C17.1193 11.5 16 12.6193 16 14V15ZM17.5 14C17.5 13.4477 17.9477 13 18.5 13C19.0523 13 19.5 13.4477 19.5 14V15H17.5V14ZM19.5 19C19.5 19.5523 19.0523 20 18.5 20C17.9477 20 17.5 19.5523 17.5 19C17.5 18.4477 17.9477 18 18.5 18C19.0523 18 19.5 18.4477 19.5 19Z" fill="#212121"/>
</svg>

<svg xmlns="http://www.w3.org/2000/svg" width="24" height="24"><path d="M21 8.5v3.05A3.5 3.5 0 0 0 15 14v.05a2.5 2.5 0 0 0-2 2.45V21H6.25A3.25 3.25 0 0 1 3 17.75V8.5h18ZM17.75 3A3.25 3.25 0 0 1 21 6.25V7H3v-.75A3.25 3.25 0 0 1 6.25 3h11.5ZM16 15h-.5a1.5 1.5 0 0 0-1.5 1.5v5a1.5 1.5 0 0 0 1.5 1.5h6a1.5 1.5 0 0 0 1.5-1.5v-5a1.5 1.5 0 0 0-1.5-1.5H21v-1a2.5 2.5 0 0 0-5 0v1Zm1.5-1a1 1 0 1 1 2 0v1h-2v-1Zm2 5a1 1 0 1 1-2 0 1 1 0 0 1 2 0Z"/></svg>
